X:1
T:Romeo and Juliet (Love Theme)
C:Pyotr Ilyich Tchaikovsky
M:4/4
L:1/4
Q:1/4=72
K:Db
% A section – love theme, Fantasy Overture (flute/oboe melody)
A | A B d _c | B3 A | A B d _c | B3 A |
B _c d _c | B3 A | d _c B A | B3 A |
A B d _c | d4 |]
